X:1
T:Dram: Helan
C:anon.
O:Sweden
S:Frank Nordberg <frnordbe@online.no> abcusers 2001-9-8
M:2/4
L:1/8
Q:1/4=3D124
K:C
z/ E/|"C"E>D C>A,|"C"A,>G, C>C|"G7"C>B, D>^D|"C"E2 z>E|
w:En li-ten f\aa-gel satt en g\aang och sj\"ong i fu-ru-skog, han
"A7"E>E F>E|"Dm"A>D D>C|"G7"C>B, A,>B,|"C"C z3/2||
w:ha-de sjung-it da-gen l\aang men dock ei sjung-it nog.
"G7"HG,HG, HA,H^A,HB,2 z HG4||
w:N\aa, vad sj\"ong han d\aa Jo!
"C"E2G2|"C"C2 z>E|"G7"DD/D/ DD|"C"E>C C2|
w:He-lan g\aar, sjung hopp fal-le-ral-la-la-la-la.
"C"E2G2|"C"C2 z>E|"G7"DD/D/ DD|"C"C2 z>C|
w:He-lan g\aar, sjung hopp fal-le-ral-la-lej! Och
"G7"D>D D>D|"C"E>C C>C|"G7"D>D D>D|"C"E>C C2|
w:den, som in-te he-lan tar, han hel-ler in-te hal-van f\aar.
"C"E2 G2|"C"Hc3 c|"G7"BB/B/ BB|"C"c3 z|]
w:He-lan g\aar, sjung hopp fal-le-ral-la-lej!
